.gitbook/assets/CI Debugger (2).svg

<svg width="19" height="19" viewBox="0 0 19 19" fill="none" xmlns="http://www.w3.org/2000/svg">
<rect x="0.5" y="0.5" width="18" height="18" fill="#022719"/>
<rect x="0.5" y="0.5" width="18" height="18" stroke="black"/>
<rect x="0.5" y="0.5" width="18" height="18" stroke="black" stroke-opacity="0.2"/>
<path fill-rule="evenodd" clip-rule="evenodd" d="M9.50266 15.0273C12.0166 15.0273 14.0546 12.9894 14.0546 10.4754C14.0546 7.96145 12.0166 5.92349 9.50266 5.92349C6.98871 5.92349 4.95075 7.96145 4.95075 10.4754C4.95075 12.9894 6.98871 15.0273 9.50266 15.0273ZM9.50266 16.1607C12.6425 16.1607 15.1879 13.6153 15.1879 10.4754C15.1879 7.33553 12.6425 4.79016 9.50266 4.79016C6.36278 4.79016 3.81741 7.33553 3.81741 10.4754C3.81741 13.6153 6.36278 16.1607 9.50266 16.1607Z" fill="#F0894F"/>
<path fill-rule="evenodd" clip-rule="evenodd" d="M13.8397 12.9173C14.061 12.696 14.4198 12.696 14.6411 12.9173L16.5361 14.8124C16.7574 15.0337 16.7574 15.3925 16.5361 15.6138C16.3149 15.8351 15.9561 15.8351 15.7348 15.6138L13.8397 13.7187C13.6184 13.4974 13.6184 13.1386 13.8397 12.9173Z" fill="#F0894F"/>
<path fill-rule="evenodd" clip-rule="evenodd" d="M5.16566 12.9173C4.94436 12.696 4.58557 12.696 4.36427 12.9173L2.46919 14.8124C2.2479 15.0337 2.2479 15.3925 2.46919 15.6138C2.69049 15.8351 3.04928 15.8351 3.27058 15.6138L5.16566 13.7187C5.38696 13.4974 5.38696 13.1386 5.16566 12.9173Z" fill="#F0894F"/>
<path fill-rule="evenodd" clip-rule="evenodd" d="M5.16566 8.03349C4.94436 8.25479 4.58557 8.25479 4.36427 8.03349L2.46919 6.13841C2.2479 5.91711 2.2479 5.55832 2.46919 5.33702C2.69049 5.11572 3.04928 5.11572 3.27058 5.33702L5.16566 7.2321C5.38696 7.4534 5.38696 7.81219 5.16566 8.03349Z" fill="#F0894F"/>
<path fill-rule="evenodd" clip-rule="evenodd" d="M13.8397 8.03349C14.061 8.25479 14.4198 8.25479 14.6411 8.03349L16.5361 6.13841C16.7574 5.91711 16.7574 5.55832 16.5361 5.33702C16.3149 5.11572 15.9561 5.11572 15.7348 5.33702L13.8397 7.2321C13.6184 7.4534 13.6184 7.81219 13.8397 8.03349Z" fill="#F0894F"/>
<path fill-rule="evenodd" clip-rule="evenodd" d="M9.50267 5.39397C9.81563 5.39397 10.0693 5.64767 10.0693 5.96063L10.0693 15.0273C10.0693 15.3403 9.81563 15.594 9.50267 15.594C9.18971 15.594 8.93601 15.3403 8.93601 15.0273L8.936 5.96063C8.936 5.64767 9.18971 5.39397 9.50267 5.39397Z" fill="#F0894F"/>
<path fill-rule="evenodd" clip-rule="evenodd" d="M12.0085 6.05587C12.0085 4.67192 10.8866 3.55001 9.50266 3.55001C8.11871 3.55001 6.9968 4.67192 6.9968 6.05587C6.9968 6.36883 6.74309 6.62254 6.43013 6.62254C6.11717 6.62254 5.86346 6.36883 5.86346 6.05587C5.86346 4.046 7.49279 2.41667 9.50266 2.41667C11.5125 2.41667 13.1419 4.046 13.1419 6.05587C13.1419 6.36883 12.8882 6.62254 12.5752 6.62254C12.2622 6.62254 12.0085 6.36883 12.0085 6.05587Z" fill="#F0894F"/>
</svg>

<svg xmlns="http://www.w3.org/2000/svg" width="19" height="19" fill="none" viewBox="0 0 19 19"><path fill="#022719" d="M.5.5h18v18H.5z"/><path stroke="#000" d="M.5.5h18v18H.5z"/><path stroke="#000" stroke-opacity=".2" d="M.5.5h18v18H.5z"/><path fill="#F0894F" fill-rule="evenodd" d="M9.503 15.027a4.552 4.552 0 1 0 0-9.104 4.552 4.552 0 0 0 0 9.104Zm0 1.134a5.685 5.685 0 1 0 0-11.37 5.685 5.685 0 0 0 0 11.37Z" clip-rule="evenodd"/><path fill="#F0894F" fill-rule="evenodd" d="M13.84 12.917a.567.567 0 0 1 .801 0l1.895 1.895a.567.567 0 0 1-.801.802l-1.895-1.895a.567.567 0 0 1 0-.802Zm-8.674 0a.567.567 0 0 0-.802 0L2.47 14.812a.567.567 0 0 0 .802.802l1.895-1.895a.567.567 0 0 0 0-.802Zm0-4.884a.567.567 0 0 1-.802 0L2.47 6.138a.567.567 0 0 1 .802-.801l1.895 1.895a.567.567 0 0 1 0 .801Zm8.674 0c.221.222.58.222.801 0l1.895-1.895a.567.567 0 0 0-.801-.801L13.84 7.232a.567.567 0 0 0 0 .801ZM9.503 5.394c.313 0 .566.254.566.567v9.066a.567.567 0 1 1-1.133 0V5.961c0-.313.254-.567.567-.567Z" clip-rule="evenodd"/><path fill="#F0894F" fill-rule="evenodd" d="M12.008 6.056a2.506 2.506 0 1 0-5.011 0 .567.567 0 0 1-1.134 0 3.64 3.64 0 0 1 7.279 0 .567.567 0 0 1-1.133 0Z" clip-rule="evenodd"/></svg>
